X: 1
T: Oak
M: 4/4
L: 1/8
R: reel
K: Emaj
E2GA Be e/2e/2e|fedf e3B|c2ec Bceg|fedf ecBG|
E2GA Be e/2e/2e|fedf e3B|c2ec Befd|1 e/2f/2e df ecBG:|2 e/2f/2e df e2ag||
|:fede eB B/2B/2B|c2ec BAGB|c2ec Bceg|fefg f3g|
a2af gfeB|c2ec BAGB|c2ec Befd|1 e/2f/2e dfe2ag:|2 e/2f/2e df ecBG||
